src/main/resources/icons/PythonIcons/icons/com/jetbrains/python/pythonConsoleToolWindow.svg

<svg xmlns="http://www.w3.org/2000/svg" width="13" height="13" viewBox="0 0 13 13">
  <path fill="#6E6E6E" d="M4.0289044,10.8758213 C4.00894614,8.8919407 4.02608259,7.8188256 4.08031375,7.65647603 C4.22875007,7.21211683 4.57976714,6.92560405 5.12872014,6.80072823 C7.23576245,6.77104987 8.30647908,6.75324352 8.34087005,6.7473092 C8.64310991,6.69515575 8.84137599,6.61706591 9.02751796,6.4768631 C9.24988465,6.30937551 9.4334341,6.02268976 9.51545897,5.71474787 C9.55652954,5.56055881 9.58471001,4.98897618 9.60000038,4 L10.7809872,4 C11.3465254,4.15805282 11.7571224,4.66481036 11.9319311,5.4736443 C11.9991671,5.78474394 11.9997586,7.36897907 11.9458387,7.62232884 C11.8928424,7.87134234 11.8234729,8.07396129 11.7198079,8.28253426 C11.5107433,8.70316833 11.2024713,8.98785969 10.8126525,9.12029717 C10.6641958,9.17073414 9.26388314,9.19781524 6.61171467,9.20154049 L6.61171467,9.56069207 L9.22938445,9.57125562 C9.23399287,10.450678 9.23481342,10.9027795 9.23184609,10.92756 C9.22107787,11.0174673 9.18296635,11.124167 9.12843548,11.2170774 C9.07227957,11.3127565 8.90179996,11.4838861 8.78607066,11.5607477 C8.43455451,11.7942076 7.89861502,11.9365171 7.19224759,11.9839623 C6.95458246,11.9999252 6.61801209,12.0045172 6.3636705,11.9952679 C5.04936664,11.9474701 4.23587671,11.5574279 4.0289044,10.8758213 Z M2.36198616,9 C2.06510303,8.94597732 1.77274002,8.81837277 1.56614406,8.56228775 C1.17482493,8.07723071 0.977280492,7.26855846 1.00207943,6.25322212 C1.01753362,5.62050361 1.11205157,5.15081903 1.30432939,4.75126152 C1.55217393,4.23623575 1.92248795,3.9308095 2.42239886,3.82910375 C2.53189794,3.80682651 6.40750943,3.80531605 6.41704371,3.80165455 C6.43217398,3.79584396 6.4331908,3.43696407 6.43174209,3.43556866 C6.43077369,3.43463839 5.55733752,3.43020248 3.81143356,3.42226093 C3.80723891,2.47709713 3.82640407,1.95887047 3.86892904,1.86758095 C4.09005403,1.39287483 4.74144045,1.10445551 5.78523933,1.01908192 C5.86070812,1.01290945 6.06495002,1.00506405 6.23910928,1.0016482 C7.39471545,0.978983048 8.24241277,1.19045684 8.68800099,1.61256951 C8.73736429,1.65933215 8.98032671,2.02267658 9.01204139,2.13353958 C9.02731122,4.06755305 9.02900527,5.06578374 9.01712353,5.12823162 C8.99412596,5.2491066 8.93888627,5.4189423 8.89284763,5.5103216 C8.73345471,5.82669155 8.43977428,6.05461605 8.05046858,6.16408869 C7.79767824,6.2351731 4.67771048,6.24111196 4.44473909,6.3070038 C3.99223124,6.43499034 3.65980154,6.78771058 3.52475354,7.28314265 C3.48428032,7.43162154 3.46021505,8.00390732 3.45255774,9 L2.36198616,9 Z"/>
</svg>

<svg xmlns="http://www.w3.org/2000/svg" width="13" height="13" viewBox="0 0 13 13"><rect id="frame" width="13" height="13" fill="none"/><path fill="#6E6E6E" d="M4.029 10.876c-.02-1.984-.003-3.057.051-3.22.149-.444.5-.73 1.049-.855 2.107-.03 3.177-.048 3.212-.054.302-.052.5-.13.687-.27.222-.168.405-.454.487-.762.042-.154.07-.726.085-1.715h1.181c.566.158.976.665 1.15 1.474.068.31.069 1.895.015 2.148a2.67 2.67 0 0 1-.226.66c-.21.421-.518.706-.907.838-.149.05-1.55.078-4.201.082v.359l2.617.01c.005.88.006 1.332.003 1.357a.79.79 0 0 1-.104.29 1.421 1.421 0 0 1-.342.343c-.351.233-.887.376-1.594.423-.237.016-.574.02-.828.011-1.315-.048-2.128-.438-2.335-1.12zM2.362 9c-.297-.054-.59-.182-.796-.438-.391-.485-.589-1.293-.564-2.309.016-.632.11-1.102.302-1.502.248-.515.618-.82 1.118-.922.11-.022 3.986-.024 3.995-.027.015-.006.016-.365.015-.366-.001-.001-.875-.006-2.62-.014-.005-.945.014-1.463.057-1.554.221-.475.872-.764 1.916-.849.076-.006.28-.014.454-.017 1.156-.023 2.003.188 2.449.61.05.047.292.41.324.522.015 1.934.017 2.932.005 2.994-.023.121-.078.29-.124.382-.16.317-.453.545-.843.654-.252.071-3.372.077-3.605.143-.453.128-.785.48-.92.976-.04.149-.065.72-.072 1.717H2.362z"/></svg>
